icons/4_Outdated/Linode.svg

<svg width="1024" height="1024" fill="none" xmlns="http://www.w3.org/2000/svg"><g clip-path="url(#a)"><path d="M512 1024c282.77 0 512-229.23 512-512S794.77 0 512 0 0 229.23 0 512s229.23 512 512 512Z" fill="#98DC9A"/><path d="m737.51 482.63-71.12-39.05-59.74 36.49-.74 37.27-29.11-19.18-39.6 24.26c2.64 62.35 2.29 59.9 2.52 59.9l-97.24 65.49-15.53-104.54 108.31-61.76-40.68-27.17-75.08 38.81-21-143.36 129.12-49.53-91.9-44.26-125.23 39.05 27.87 134.75 42 32.57-31.83 15.1 21 102 29.31 27.48-21 12.73 16.23 78.88L459.83 768c-12-81.21-11.65-78.65-11.45-78.65v-.23L526 633.76c17.16-12.23 15.18-10.83 15.53-10.83l1 24.53 33.77 28.3-.85-77.64 46.58-33.39c14.4-10.25 26.63-18.94 26.75-18.94l-2.17 36 25.16 17.47 6.6-74.69 59.14-41.94Z" fill="#fff"/></g><defs><clipPath id="a"><path fill="#fff" d="M0 0h1024v1024H0z"/></clipPath></defs></svg>

<svg width="1024" height="1024" viewBox="0 0 1024 1024" fill="none" xmlns="http://www.w3.org/2000/svg">
<g clip-path="url(#clip0_3_584)">
<path d="M512 1024C794.77 1024 1024 794.77 1024 512C1024 229.23 794.77 0 512 0C229.23 0 0 229.23 0 512C0 794.77 229.23 1024 512 1024Z" fill="#98DC9A"/>
<path d="M737.51 482.63L666.39 443.58L606.65 480.07L605.91 517.34L576.8 498.16L537.2 522.42C539.84 584.77 539.49 582.32 539.72 582.32L442.48 647.81L426.95 543.27L535.26 481.51L494.58 454.34L419.5 493.15L398.5 349.79L527.62 300.26L435.72 256L310.49 295.05L338.36 429.8L380.36 462.37L348.53 477.47L369.53 579.47L398.84 606.95L377.84 619.68L394.07 698.56L459.83 768C447.83 686.79 448.18 689.35 448.38 689.35V689.12L526 633.76C543.16 621.53 541.18 622.93 541.53 622.93L542.53 647.46L576.3 675.76L575.45 598.12L622.03 564.73C636.43 554.48 648.66 545.79 648.78 545.79L646.61 581.79L671.77 599.26L678.37 524.57L737.51 482.63Z" fill="white"/>
</g>
<defs>
<clipPath id="clip0_3_584">
<rect width="1024" height="1024" fill="white"/>
</clipPath>
</defs>
</svg>
